X: 4026
T: Blackwells
R: barndance
M: 4/4
K: Gmajor
d2|.g2 gd .e2 ed|.e.f.ge d2 dc|BdcB cBAG|A2 AB A2 d2|
.g2 gd .e2 ed|.e.f.ge d2 dc|BdcB cBAG|A2 AG G2:|
BG|A2 AB G2 GB|AGAB d2Bd|e2 ed efge|dBGB A4|
A2 AB G2 GB|AGAB d2Bd|e2 ed e2 ed|efge a4|
a2 {b}ab (3aba gf|e2a2d4|e2 ef (3efe d2|B2d2 A2 {d}BA|
G2 G2 (=f4-|=f2) ed cBAG|A2 A2 g4-|g2 (3.g.fe defg|
a2 {b}ab (3aba gf|e2a2d2g2|{g}fedc B2 AG|D2 GF G2||

